X: 8
T:Crowley's
M:4/4
L:1/8
S:Tommy Peoples, Donegal (fiddle)
R:Reel
D:From a 70's demo tape
N:As played
Z:Bernie Stocks
K:D
dB | (3.A.A.FdA ~B2dB | AD(3.F.F.D AD{F}ED | A3F3d BGBd | cdeg fddB |
AF~F2 ~B2dB | AD{F}ED AD{F}ED | A3F3d BGBd | cdeg fdde || 
~f3a ~g2fg | eA(3.c.c.A eAce | ~f3a ~g2fg | afge fdde | 
fafa ~g2fg | eA(3.c.c.A eAce | Af~f2 g2fg | af{a}fe fdd2 ||
